storage/app/icons/phosphoricons/light/identification-badge-light.svg

<svg xmlns="http://www.w3.org/2000/svg" fill="currentColor" viewBox="0 0 256 256"><path d="M151.11 166.13a38 38 0 1 0-46.22 0A65.75 65.75 0 0 0 75.2 188.4a6 6 0 0 0 9.6 7.2 54 54 0 0 1 86.4 0 6 6 0 0 0 9.6-7.2 65.75 65.75 0 0 0-29.69-22.27M128 110a26 26 0 1 1-26 26 26 26 0 0 1 26-26m72-84H56a14 14 0 0 0-14 14v176a14 14 0 0 0 14 14h144a14 14 0 0 0 14-14V40a14 14 0 0 0-14-14m2 190a2 2 0 0 1-2 2H56a2 2 0 0 1-2-2V40a2 2 0 0 1 2-2h144a2 2 0 0 1 2 2ZM90 64a6 6 0 0 1 6-6h64a6 6 0 0 1 0 12H96a6 6 0 0 1-6-6"/></svg>

<svg xmlns="http://www.w3.org/2000/svg" viewBox="0 0 256 256" fill="currentColor"><path d="M151.11,166.13a38,38,0,1,0-46.22,0A65.75,65.75,0,0,0,75.2,188.4a6,6,0,0,0,9.6,7.2,54,54,0,0,1,86.4,0,6,6,0,0,0,9.6-7.2A65.75,65.75,0,0,0,151.11,166.13ZM128,110a26,26,0,1,1-26,26A26,26,0,0,1,128,110Zm72-84H56A14,14,0,0,0,42,40V216a14,14,0,0,0,14,14H200a14,14,0,0,0,14-14V40A14,14,0,0,0,200,26Zm2,190a2,2,0,0,1-2,2H56a2,2,0,0,1-2-2V40a2,2,0,0,1,2-2H200a2,2,0,0,1,2,2ZM90,64a6,6,0,0,1,6-6h64a6,6,0,0,1,0,12H96A6,6,0,0,1,90,64Z"/></svg>
